X:152
T:Thou, Who at Thy First Eucharist
%%stretchlast false
M:4/4
L:1/4
K:C clef=C1
"^I"[C,G,CE] [C,G,CE]3/2 [C,E,C]/ [C,E,C] | "^ii7³"[C,F,CD] "^I"[C,G,CE]3/2 [C,G,CE]/ [C,G,CE] | "^V7²"[D,G,B,F] "^I¹"[E,G,CG]3 | "^I"[C,G,CE] "^V7³"[F,G,B,D] "^I¹"[E,G,CE] "^ii"[D,A,DF]3/2 | "^ii7³"[C,A,DF]/ "^V7¹"[B,,G,DF] "^I"[C,G,CE] "^I¹"[E,,G,CG] | [E,,G,CE]/ "^I"[F,,G,CE]/ "^V"[G,,G,B,D]3 | "^I"[C,G,CE] [C,G,CE]3/2 [C,E,C]/ [C,E,C] | "^ii7³"[C,F,CD] "^I"[C,G,CE]3/2 "^vi"[A,,C,CE]/ [A,,C,CE] | "^ii7²"[A,,D,CF] "^I¹"[E,,E,CG]3 | "^I"[C,G,CE] "^IV"[F,CA] "^I¹"[E,G,CG] "^II7"[D,A,C^F]3/2 | [D,A,C^F]/ "^iii"[E,G,B,G] "^vi7¹"[C,G,EA] "^V²"[D,G,DB] | "^II7"[D,^F,CA] "^V"[G,,G,B,G]3 | "^V7³"[F,G,B,G] "^I¹"[E,G,Cc] [E,G,CG] "^V7²"[D,G,B,F] | "^I"[C,G,CE] "^IV"[F,,F,CA] [F,,F,CA] "^IV¹"[A,,F,Cc] | "^IV"[F,,CFA] "^I"[C,CEG]3 | "^I¹"[E,G,CG] "^V7²"[D,G,B,F] "^I"[C,G,CE] "^V7"[G,,F,B,D] | "^vi"[A,,E,C] "^IV"[F,,F,CA]3/2 "^ii¹"[F,,A,DF]/ "^I²"[G,,G,CE] | "^V7"[G,,F,B,D] "^I"[C,E,C]3 |]
